svg/fluentui-system-icons/ic_fluent_search_visual_20_filled.svg

<svg width="20" height="20" viewBox="0 0 20 20" fill="none" xmlns="http://www.w3.org/2000/svg">
<path d="M3 6.25C3 4.45507 4.45507 3 6.25 3H7.25C7.66421 3 8 3.33579 8 3.75C8 4.16421 7.66421 4.5 7.25 4.5H6.25C5.2835 4.5 4.5 5.2835 4.5 6.25V7.25C4.5 7.66421 4.16421 8 3.75 8C3.33579 8 3 7.66421 3 7.25V6.25ZM17 13.75C17 15.5449 15.5449 17 13.75 17H12.75C12.3358 17 12 16.6642 12 16.25C12 15.8358 12.3358 15.5 12.75 15.5H13.75C14.7165 15.5 15.5 14.7165 15.5 13.75V12.75C15.5 12.3358 15.8358 12 16.25 12C16.6642 12 17 12.3358 17 12.75V13.75ZM17 6.25C17 4.45508 15.5449 3 13.75 3H12.75C12.3358 3 12 3.33579 12 3.75C12 4.16421 12.3358 4.5 12.75 4.5L13.75 4.5C14.7165 4.5 15.5 5.2835 15.5 6.25V7.25C15.5 7.66421 15.8358 8 16.25 8C16.6642 8 17 7.66421 17 7.25V6.25ZM6.25 17C4.45507 17 3 15.5449 3 13.75V12.75C3 12.3358 3.33579 12 3.75 12C4.16421 12 4.5 12.3358 4.5 12.75L4.5 13.75C4.5 14.7165 5.2835 15.5 6.25 15.5L7.25 15.5C7.66421 15.5 8 15.8358 8 16.25C8 16.6642 7.66421 17 7.25 17L6.25 17ZM10 12C11.1046 12 12 11.1046 12 10C12 8.89543 11.1046 8 10 8C8.89543 8 8 8.89543 8 10C8 11.1046 8.89543 12 10 12ZM7 8C7.55228 8 8 7.55229 8 7C8 6.44772 7.55228 6 7 6C6.44772 6 6 6.44772 6 7C6 7.55229 6.44772 8 7 8Z" fill="#212121"/>
</svg>

<svg xmlns="http://www.w3.org/2000/svg" width="20" height="20"><path d="M3 6.25A3.25 3.25 0 0 1 6.25 3h1a.75.75 0 0 1 0 1.5h-1A1.75 1.75 0 0 0 4.5 6.25v1a.75.75 0 0 1-1.5 0v-1Zm14 7.5A3.25 3.25 0 0 1 13.75 17h-1a.75.75 0 0 1 0-1.5h1a1.75 1.75 0 0 0 1.75-1.75v-1a.75.75 0 0 1 1.5 0v1Zm0-7.5A3.25 3.25 0 0 0 13.75 3h-1a.75.75 0 0 0 0 1.5h1c.966 0 1.75.784 1.75 1.75v1a.75.75 0 0 0 1.5 0v-1ZM6.25 17A3.25 3.25 0 0 1 3 13.75v-1a.75.75 0 0 1 1.5 0v1c0 .966.784 1.75 1.75 1.75h1a.75.75 0 0 1 0 1.5h-1ZM10 12a2 2 0 1 0 0-4 2 2 0 0 0 0 4ZM7 8a1 1 0 1 0 0-2 1 1 0 0 0 0 2Z"/></svg>
